resources/svg/screenshot-2-fill.svg

<svg fill="currentColor" viewBox="0 0 24 24" xmlns="http://www.w3.org/2000/svg"><path d="M3 3H5V5H3V3ZM7 3H9V5H7V3ZM11 3H13V5H11V3ZM15 3H17V5H15V3ZM19 3H21V5H19V3ZM19 7H21V9H19V7ZM3 19H5V21H3V19ZM3 15H5V17H3V15ZM3 11H5V13H3V11ZM3 7H5V9H3V7ZM10.6667 11L11.7031 9.4453C11.8886 9.1671 12.2008 9 12.5352 9H15.4648C15.7992 9 16.1114 9.1671 16.2969 9.4453L17.3333 11H20C20.5523 11 21 11.4477 21 12V20C21 20.5523 20.5523 21 20 21H8C7.44772 21 7 20.5523 7 20V12C7 11.4477 7.44772 11 8 11H10.6667ZM14 18C15.1046 18 16 17.1046 16 16C16 14.8954 15.1046 14 14 14C12.8954 14 12 14.8954 12 16C12 17.1046 12.8954 18 14 18Z"/></svg>

<svg xmlns="http://www.w3.org/2000/svg" viewBox="0 0 24 24" fill="currentColor">
    <g>
        <path fill="none" d="M0 0h24v24H0z"/>
        <path d="M3 3h2v2H3V3zm4 0h2v2H7V3zm4 0h2v2h-2V3zm4 0h2v2h-2V3zm4 0h2v2h-2V3zm0 4h2v2h-2V7zM3 19h2v2H3v-2zm0-4h2v2H3v-2zm0-4h2v2H3v-2zm0-4h2v2H3V7zm7.667 4l1.036-1.555A1 1 0 0 1 12.535 9h2.93a1 1 0 0 1 .832.445L17.333 11H20a1 1 0 0 1 1 1v8a1 1 0 0 1-1 1H8a1 1 0 0 1-1-1v-8a1 1 0 0 1 1-1h2.667zM14 18a2 2 0 1 0 0-4 2 2 0 0 0 0 4z"/>
    </g>
</svg>
